dist/img/svg/lamp2_icon.svg

<svg version="1.2" baseProfile="tiny-ps" xmlns="http://www.w3.org/2000/svg" width="46" height="50"><defs><clipPath clipPathUnits="userSpaceOnUse" id="cp1"><path d="M0 0h46v50H0z"/></clipPath></defs><style/><g id="Page 1" clip-path="url(#cp1)"><path id="Path 1" fill-rule="evenodd" d="M35.1 22.47c-.02 1.31-.24 2.61-.64 3.86-.59 1.34-1.28 2.63-2.05 3.86-1.8 3.13-4.51 7.87-4.51 9.63 0 .48-.39.87-.88.87h-8.41a.87.87 0 01-.87-.87c0-1.76-2.72-6.5-4.51-9.63-.78-1.23-1.46-2.52-2.05-3.86-.4-1.25-.62-2.55-.65-3.86.02-6.77 5.52-12.25 12.29-12.25S35.09 15.7 35.1 22.47zm-1.75 0c0-5.82-4.72-10.53-10.53-10.53-5.82 0-10.53 4.71-10.53 10.53.03 1.12.21 2.23.55 3.3.57 1.22 1.21 2.4 1.91 3.55 2.27 3.94 4.19 7.42 4.65 9.62h.74l-3.43-11.15a.903.903 0 01.01-.54c.15-.46.65-.71 1.11-.55l4.99 1.66 4.99-1.66c.17-.06.36-.06.53-.01.46.14.72.63.58 1.1l-3.43 11.15h.76c.45-2.2 2.37-5.68 4.64-9.63.7-1.14 1.33-2.32 1.9-3.54.34-1.07.53-2.18.56-3.3zm-6.58 26.61l-1.41.8a.83.83 0 01-.44.12h-4.21c-.15 0-.3-.04-.44-.12l-1.4-.8a.882.882 0 01.88-1.53l1.2.7h3.74l1.2-.7a.883.883 0 01.88 1.53zm-.35-5.58l-7.02.7h-.09c-.45 0-.83-.34-.88-.79a.89.89 0 01.79-.96l7.02-.7c.48-.05.91.3.96.79.05.48-.3.91-.78.96zm0 2.63l-7.02.7c-.03.01-.06.01-.09.01-.45 0-.83-.34-.88-.79-.04-.48.31-.92.79-.96l7.02-.71c.48-.04.91.31.96.79.05.48-.3.91-.78.96zM23.7 1.2v6.14c0 .49-.4.88-.88.88-.49 0-.88-.39-.88-.88V1.2c0-.48.39-.88.88-.88.48 0 .88.4.88.88zm15.25 7.05l-4.34 4.34-.02.02c-.35.34-.91.33-1.24-.02-.34-.35-.33-.9.02-1.24l4.34-4.34c.01-.01.02-.02.02-.03.35-.33.91-.32 1.24.03.34.34.33.9-.02 1.24zm6.69 14.89c0 .49-.4.88-.88.88h-6.15c-.48 0-.87-.39-.87-.88 0-.48.39-.88.87-.88h6.15c.48 0 .88.4.88.88zm-6.69 16.12a.89.89 0 01-1.24.02l-4.34-4.35a.863.863 0 010-1.24c.34-.34.9-.34 1.24 0l4.34 4.35c.33.34.33.88 0 1.22zm-26.68-4.33l-4.35 4.35c-.16.16-.38.25-.62.25-.23 0-.45-.09-.62-.25a.881.881 0 010-1.24l4.35-4.35c.34-.33.88-.33 1.22 0 .34.34.35.89.02 1.24zM7.9 23.14c0 .49-.4.88-.88.88H.88c-.49 0-.88-.39-.88-.88 0-.48.39-.88.88-.88h6.14c.48 0 .88.4.88.88zm4.62-11.17c.01.49-.39.88-.87.88-.24 0-.46-.09-.62-.26L6.68 8.25c0-.01-.01-.02-.02-.02a.884.884 0 01.02-1.25c.35-.33.91-.32 1.24.03l4.35 4.34c.16.17.25.39.25.62zm11.21 26.71l3.01-9.78-3.65 1.22c-.18.06-.37.06-.55 0l-3.65-1.22 3.01 9.78c.03.09.04.17.04.26h1.76c0-.09.01-.17.03-.26z" fill="#000"/></g></svg>

<svg version="1.2" baseProfile="tiny-ps" xmlns="http://www.w3.org/2000/svg" viewBox="0 0 46 50" width="46" height="50">
	<title>Page 1</title>
	<defs>
		<clipPath clipPathUnits="userSpaceOnUse" id="cp1">
			<path d="M0 0L46 0L46 50L0 50Z" />
		</clipPath>
	</defs>
	<style>
		tspan { white-space:pre }
		.shp0 { fill: #000000 } 
	</style>
	<g id="Page 1" clip-path="url(#cp1)">
		<path id="Path 1" fill-rule="evenodd" class="shp0" d="M35.1 22.47C35.08 23.78 34.86 25.08 34.46 26.33C33.87 27.67 33.18 28.96 32.41 30.19C30.61 33.32 27.9 38.06 27.9 39.82C27.9 40.3 27.51 40.69 27.02 40.69L18.61 40.69C18.13 40.69 17.74 40.3 17.74 39.82C17.74 38.06 15.02 33.32 13.23 30.19C12.45 28.96 11.77 27.67 11.18 26.33C10.78 25.08 10.56 23.78 10.53 22.47C10.55 15.7 16.05 10.22 22.82 10.22C29.59 10.22 35.09 15.7 35.1 22.47ZM33.35 22.47C33.35 16.65 28.63 11.94 22.82 11.94C17 11.94 12.29 16.65 12.29 22.47C12.32 23.59 12.5 24.7 12.84 25.77C13.41 26.99 14.05 28.17 14.75 29.32C17.02 33.26 18.94 36.74 19.4 38.94L20.14 38.94L16.71 27.79C16.66 27.61 16.66 27.42 16.72 27.25C16.87 26.79 17.37 26.54 17.83 26.7L22.82 28.36L27.81 26.7C27.98 26.64 28.17 26.64 28.34 26.69C28.8 26.83 29.06 27.32 28.92 27.79L25.49 38.94L26.25 38.94C26.7 36.74 28.62 33.26 30.89 29.31C31.59 28.17 32.22 26.99 32.79 25.77C33.13 24.7 33.32 23.59 33.35 22.47ZM26.77 49.08L25.36 49.88C25.23 49.96 25.08 50 24.92 50L20.71 50C20.56 50 20.41 49.96 20.27 49.88L18.87 49.08C18.45 48.83 18.31 48.3 18.55 47.88C18.79 47.46 19.33 47.31 19.75 47.55L20.95 48.25L24.69 48.25L25.89 47.55C26.31 47.31 26.85 47.46 27.09 47.88C27.33 48.3 27.19 48.83 26.77 49.08ZM26.42 43.5L19.4 44.2C19.37 44.2 19.34 44.2 19.31 44.2C18.86 44.2 18.48 43.86 18.43 43.41C18.39 42.93 18.74 42.5 19.22 42.45L26.24 41.75C26.72 41.7 27.15 42.05 27.2 42.54C27.25 43.02 26.9 43.45 26.42 43.5ZM26.42 46.13L19.4 46.83C19.37 46.84 19.34 46.84 19.31 46.84C18.86 46.84 18.48 46.5 18.43 46.05C18.39 45.57 18.74 45.13 19.22 45.09L26.24 44.38C26.72 44.34 27.15 44.69 27.2 45.17C27.25 45.65 26.9 46.08 26.42 46.13ZM23.7 1.2L23.7 7.34C23.7 7.83 23.3 8.22 22.82 8.22C22.33 8.22 21.94 7.83 21.94 7.34L21.94 1.2C21.94 0.72 22.33 0.32 22.82 0.32C23.3 0.32 23.7 0.72 23.7 1.2ZM38.95 8.25L34.61 12.59C34.6 12.6 34.59 12.61 34.59 12.61C34.24 12.95 33.68 12.94 33.35 12.59C33.01 12.24 33.02 11.69 33.37 11.35L37.71 7.01C37.72 7 37.73 6.99 37.73 6.98C38.08 6.65 38.64 6.66 38.97 7.01C39.31 7.35 39.3 7.91 38.95 8.25ZM45.64 23.14C45.64 23.63 45.24 24.02 44.76 24.02L38.61 24.02C38.13 24.02 37.74 23.63 37.74 23.14C37.74 22.66 38.13 22.26 38.61 22.26L44.76 22.26C45.24 22.26 45.64 22.66 45.64 23.14ZM38.95 39.26C38.62 39.6 38.06 39.61 37.71 39.28L33.37 34.93C33.02 34.59 33.02 34.03 33.37 33.69C33.71 33.35 34.27 33.35 34.61 33.69L38.95 38.04C39.28 38.38 39.28 38.92 38.95 39.26ZM12.27 34.93L7.92 39.28C7.76 39.44 7.54 39.53 7.3 39.53C7.07 39.53 6.85 39.44 6.68 39.28C6.34 38.93 6.34 38.38 6.68 38.04L11.03 33.69C11.37 33.36 11.91 33.36 12.25 33.69C12.59 34.03 12.6 34.58 12.27 34.93ZM7.9 23.14C7.9 23.63 7.5 24.02 7.02 24.02L0.88 24.02C0.39 24.02 0 23.63 0 23.14C0 22.66 0.39 22.26 0.88 22.26L7.02 22.26C7.5 22.26 7.9 22.66 7.9 23.14ZM12.52 11.97C12.53 12.46 12.13 12.85 11.65 12.85C11.41 12.85 11.19 12.76 11.03 12.59L6.68 8.25C6.68 8.24 6.67 8.23 6.66 8.23C6.32 7.88 6.33 7.32 6.68 6.98C7.03 6.65 7.59 6.66 7.92 7.01L12.27 11.35C12.43 11.52 12.52 11.74 12.52 11.97ZM23.73 38.68L26.74 28.9L23.09 30.12C22.91 30.18 22.72 30.18 22.54 30.12L18.89 28.9L21.9 38.68C21.93 38.77 21.94 38.85 21.94 38.94L23.7 38.94C23.7 38.85 23.71 38.77 23.73 38.68Z" />
	</g>
</svg>
